X:1
T:Title
%%score ( 1 2 ) ( 3 4 )
L:1/8
Q:1/4=100
M:3/4
K:A
V:1 treble nm="Grand Piano, Soprano"
V:2 treble 
V:3 bass nm="Choir Pad, Baja, 76.76 D"
V:4 bass 
V:1
 E2 [CA]3 [Ec] | [GB][Gd] [Ac]2 [Ae]2 | [EA]2 [FB]3 [Fd] | [EG][EB] c2 B2 | E2 [CA]3 [Ec] | %5
w: By~E.~Locke,~1870 * *|||||
 [GB][Gd] [Ac]2 [Ee]2 | [Ec]2 [GB]3 [FA] | [EG][^DF] E4 | [Ac]>[Bd] [ce]3 [Bd] | %9
w: ||||
 [Ac][EB] [CA]>[EB] [Ac]2 | [ce]2 [df]3 [ce] | [Bd][Ac] [Ac]2 [GB]2 | E2 [CA]3 [Ec] | %13
w: ||||
 [GB][Gd] [Ac]2 [Ae]2 | [EA]2 [FB]3 [Fd] | [DF][DG] [CA]4- | [CA]4 z2 |] %17
w: ||||
V:2
 x6 | x6 | x6 | z2 E4 | x6 | x6 | x6 | x6 | x6 | x6 | x6 | x6 | x6 | x6 | x6 | x6 | x6 |] %17
V:3
 A,2 [A,,A,]3 [A,,A,] | [E,B,][E,B,] A,2 [A,C]2 | [C,C]2 [D,B,]3 [B,,B,] | [E,B,][E,G,] A,2 G,2 | %4
 E,2 [A,,A,]3 [A,,A,] | [E,A,][E,B,] A,2 [A,C]2 | [A,,A,]2 [B,,E,]3 [B,,B,] | %7
 [B,,B,][B,,B,] [E,G,]4 | z6 | z6 | C2 D3 C | B,A,[K:bass] A,2 G,2 | E,2 [A,,A,]3 [A,,A,] | %13
 [E,B,][E,B,] A,2 [A,C]2 | [C,C]2 [D,B,]3 [B,,B,] | [E,B,][E,B,] [A,,A,]4- | [A,,A,]4 z2 |] %17
V:4
 x6 | x6 | x6 | z2 E,4 | x6 | x6 | x6 | x6 | x6 | x6 | x6 | x2[K:bass] x4 | x6 | x6 | x6 | x6 | %16
 x6 |] %17

